X: 17268
T: Here's To Temperance
R: jig
M: 6/8
K: Adorian
|:E2A AGA|Bc/d/e ~g3|gab age|deg ~B3|
E2A AGA|Bc/d/e g2b|age dBe|1 ABG ~A2G:|2 ABG A3||
e2a aga|b2c' bag|egg dgg|~g3 ged|
eae ~a3|b2c' bag|egg ged|BAg ~a3|
gag ~a3|b2c' bag|egg dgg|~e3 ged|
eae ~a3|b2c' bag|e2g ged|BAG ~A2G||

